svg/u1f49f.svg

<svg viewBox="0 0 128 128" xmlns="http://www.w3.org/2000/svg">
  <g>
    <path d="M116,4H12c-4.42,0-8,3.58-8,8v104c0,4.42,3.58,8,8,8h104c4.42,0,8-3.58,8-8V12 C124,7.58,120.42,4,116,4z" fill="#8E24AA"/>
    <path d="M109.7,4H11.5C7.37,4.03,4.03,7.37,4,11.5v97.9c-0.01,4.14,3.34,7.49,7.48,7.5c0.01,0,0.01,0,0.02,0 h98.1c4.14,0.01,7.49-3.34,7.5-7.48c0-0.01,0-0.01,0-0.02V11.5c0.09-4.05-3.13-7.41-7.18-7.5C109.85,4,109.77,4,109.7,4z" fill="#AB47BC"/>
    <path d="M39.7,12.9c0-2.3-1.6-3-10.8-2.7c-7.7,0.3-11.5,1.2-13.8,4 s-2.9,8.5-3,15.3c0,4.8,0,9.3,2.5,9.3c3.4,0,3.4-7.9,6.2-12.3C26.2,17.8,39.7,15.9,39.7,12.9z" opacity="0.3" fill="#FAFAFA" enable-background="new "/>
    <radialGradient id="SVGID_1_" cx="-3364.5134" cy="2296.5054" fx="-3338.0322" fy="2332.2312" gradientTransform="matrix(0 -0.93 1.07 0 -2389.6001 -3096.1399)" gradientUnits="userSpaceOnUse" r="44.47">
      <stop offset="0.57" stop-color="#FAFAFA"/>
      <stop offset="1" stop-color="#EEEEEE"/>
    </radialGradient>
    <path d="M86.4,22.9C70.1,22.9,64,42.5,64,42.5s-5.9-19.6-22.4-19.6c-12.4,0-26.5,9.8-21.3,32.2 s43.6,50,43.6,50s0.2-0.1,0.2-0.2c0.01,0.08,0.05,0.15,0.1,0.2c0,0,38.3-27.7,43.5-50S98.8,22.9,86.4,22.9z" fill="url(#SVGID_1_)"/>
  </g>
</svg>

<svg viewBox="0 0 128 128" xmlns="http://www.w3.org/2000/svg">
  <defs>
    <radialGradient id="SVGID_1_" cx="-35.330712" cy="63.234279" fx="-8.849512" fy="98.960079" gradientTransform="matrix(0 -0.93 1.07 0 0 0)" gradientUnits="userSpaceOnUse" r="44.47">
      <stop offset="0.57" stop-color="#FAFAFA"/>
      <stop offset="1" stop-color="#EEEEEE"/>
    </radialGradient>
  </defs>
  <path d="M116,4 L12,4 C7.58,4 4,7.58 4,12 L4,116 C4,120.42 7.58,124 12,124 L116,124 C120.42,124 124,120.42 124,116 L124,12 C124,7.58 120.42,4 116,4 Z" fill="#8E24AA"/>
  <path d="M109.7,4 L11.5,4 C7.37,4.03 4.03,7.37 4,11.5 L4,109.4 C3.99,113.54 7.34,116.89 11.48,116.9 C11.49,116.9 11.49,116.9 11.5,116.9 L109.6,116.9 C113.74,116.91 117.09,113.56 117.1,109.42 C117.1,109.41 117.1,109.41 117.1,109.4 L117.1,11.5 C117.19,7.45 113.97,4.09 109.92,4 C109.85,4 109.77,4 109.7,4 Z" fill="#AB47BC"/>
  <path d="M39.7,12.9 C39.7,10.6 38.1,9.9 28.9,10.2 C21.2,10.5 17.4,11.4 15.1,14.2 C12.8,17 12.2,22.7 12.1,29.5 C12.1,34.3 12.1,38.8 14.6,38.8 C18,38.8 18,30.9 20.8,26.5 C26.2,17.8 39.7,15.9 39.7,12.9 Z" fill="#FAFAFA" opacity="0.3"/>
  <path d="M86.4,22.9 C70.1,22.9 64,42.5 64,42.5 C64,42.5 58.1,22.9 41.6,22.9 C29.2,22.9 15.1,32.7 20.3,55.1 C25.5,77.5 63.9,105.1 63.9,105.1 C63.9,105.1 64.1,105 64.1,104.9 C64.11,104.98 64.15,105.05 64.2,105.1 C64.2,105.1 102.5,77.4 107.7,55.1 C112.9,32.8 98.8,22.9 86.4,22.9 Z" fill="url(#SVGID_1_)"/>
</svg>
